X:204
T:Polska efter C A Lindblom
R:sl\"angpolska
A:\"Osterg\"otland
B:C A Lindblom 77
Z:id:hn-sp-204
M:3/4
L:1/16
K:D
d2d2 fafd egec | d2d2 fafd egec | d2ef g2f2 e2d2 | d2cB ABAG F2D2 |
d2d2 fafd egec | d2d2 fafd egec | d2ef g2f2 e2d2 | cdec d4 D4 :|
|: a4 A2a2 bagf | g2A2 A2g2 agfe | f2ed d2ef gfed | d2cd efed c2A2 |
A2d2 fafd egec | A2d2 fafd egec | d2ef g2f2 e2d2 | cdec d4 D4 :|

